svgs/light/arrow-down-square-triangle.svg

<svg xmlns="http://www.w3.org/2000/svg" viewBox="0 0 512 512"><!--! Font Awesome Pro 6.0.0-alpha3 by @fontawesome - https://fontawesome.com License - https://fontawesome.com/license (Commercial License) --><path d="M336 223.1l96 .0059c26.51 0 48-21.49 48-48.01V80c0-26.51-21.49-48-48-48h-96c-26.51 0-48 21.49-48 48v95.99C288 202.5 309.5 223.1 336 223.1zM320 80c0-8.824 7.178-16 16-16h96c8.822 0 16 7.176 16 16v95.99c0 8.824-7.178 16-16 16h-96c-8.822 0-16-7.176-16-16V80zM492.1 438.9l-83.13-137.1c-5.562-9.188-15.28-13.76-24.97-13.76s-19.34 4.573-24.91 13.76l-83.25 137.1c-11 18.25 2.75 41.13 25 41.13h166.3C489.4 480 503.1 457.1 492.1 438.9zM307.8 448l76.29-125.6l76.18 125.6H307.8zM224 352c-4.094 0-8.188 1.562-11.31 4.688L144 425.4V48c0-8.844-7.156-15.1-16-15.1S112 39.16 112 48v377.4l-68.69-68.69c-6.25-6.25-16.38-6.25-22.62 0s-6.25 16.38 0 22.62l96 96c6.25 6.25 16.38 6.25 22.62 0l96-96c6.25-6.25 6.25-16.38 0-22.62C232.2 353.6 228.1 352 224 352z"/></svg>

<svg xmlns="http://www.w3.org/2000/svg" viewBox="0 0 512 512"><!-- Font Awesome Pro 6.0.0-alpha2 by @fontawesome - https://fontawesome.com License - https://fontawesome.com/license (Commercial License) --><path d="M336.006 223.988H432.008C458.518 223.988 480.008 202.5 480.008 175.988V80C480.008 53.492 458.518 32 432.008 32H336.006C309.496 32 288.006 53.492 288.006 80V175.988C288.006 202.5 309.496 223.988 336.006 223.988ZM320.006 80C320.006 71.176 327.184 64 336.006 64H432.008C440.83 64 448.008 71.176 448.008 80V175.988C448.008 184.812 440.83 191.988 432.008 191.988H336.006C327.184 191.988 320.006 184.812 320.006 175.988V80ZM492.133 438.883L409.006 301.77C403.443 292.582 393.756 287.988 384.068 287.988S364.693 292.582 359.131 301.77L275.881 438.883C264.881 457.133 278.631 480.008 300.881 480.008H467.131C489.383 480.008 503.133 457.133 492.133 438.883ZM307.777 448.008L384.066 322.359L460.244 448.008H307.777ZM224 352C219.906 352 215.812 353.562 212.687 356.688L144 425.375V48C144 39.156 136.844 32 128 32S112 39.156 112 48V425.375L43.312 356.688C37.062 350.438 26.937 350.438 20.687 356.688S14.437 373.063 20.687 379.312L116.687 475.312C122.937 481.562 133.063 481.562 139.312 475.312L235.312 379.312C241.562 373.062 241.562 362.937 235.312 356.688C232.187 353.562 228.094 352 224 352Z"/></svg>
